X:1
T:Beware of the wine-cup (SATB)
T:Beware of the wine-cup (TTBB)
T:John Liptrot Hatton(1808-1886)
C:John Liptrot Hatton(1808-1886)
%%score [ 1 2 3 4 ]
L:1/8
M:4/4
K:F
V:1 treble-8 nm="Tenor"
V:2 treble-8 nm="Tenor"
V:3 bass nm="Baryton"
V:4 bass nm="Bass"
V:1
!mf! c2 | c2 c- c!<(! (cd) (e f)!<)! | !>!g3 f e2 z2 | f4 d2 z2 | c4 A2 z c | %5
w: 1.I|know the _ wine- * cup's _|fair to see,|Take care!|Take care! It|
w: 2.It|glit- ters _ like _ a _|gold- en crown,|Take care!|Take care! To|
w: 3.There's|pain and _ woe _ in the|wine- cup's hue,|Take care!|Take care! And|
w: 4.It|shines like a jew- * el _|bright and fair,|Take care!|Take care! It|
 c2 c2!<(! (cd) (e f)!<)! | !>!e3 d ^c2 z c | (^c4 d2) z =B | (=B4 c2) z2 |!p! c2 c2 d2 d d | %10
w: can both false _ and _|frien- ly be, Be-|ware! _ Be-|ware! _|Trust it not, it will|
w: dark- ness it _ will _|drag thee down, Be-|ware! _ Be-|ware! _|Trust it not, it will|
w: it will prove _ no _|friend to thee, Be-|ware! _ Be-|ware! _|Trust it not, it will|
w: is a fool's _ cap for|thee to wear, Be-|ware! _ Be-|ware! _|Trust it not, it is|
 e2 e2 f4 |"^cresc." f2 d2 c2 =B B |!>(! c6 _B2!>)! | A6 |] %14
w: ru- in thee,|Trust it not, it will|ru- in|thee!|
w: ru- in thee,|Trust it not, it will|ru- in|thee!|
w: ru- in thee,|Trust it not, it will|ru- in|thee!|
w: fool- ing thee,|Trust it not, it will|ru- in|thee!|
V:2
!mf! A2 | A2 A- A!<(! A2 (B c)!<)! | !>!c3 c c2 z2 | d4 B2 z2 | G4 F2 z A | %5
w: 1.I|know the _ wine- cup's _|fair to see,|Take care!|Take care! It|
w: 2.It|glit- ters _ like a _|gold- en crown,|Take care!|Take care! To|
w: 3.There's|pain and _ woe in the|wine- cup's hue,|Take care!|Take care! And|
w: 4.It|shines like a jew- el _|bright and fair,|Take care!|Take care! It|
 A2 A2!<(! A2 (A A)!<)! | !>!B3 B B2 z A | (A4 A2) z G | (G4 G2) z2 |!p! F2 F2 F2 B A | %10
w: can both false and _|frien- ly be, Be-|ware! _ Be-|ware! _|Trust it not, it will|
w: dark- ness it will _|drag thee down, Be-|ware! _ Be-|ware! _|Trust it not, it will|
w: it will prove no _|friend to thee, Be-|ware! _ Be-|ware! _|Trust it not, it will|
w: is a fool's cap for|thee to wear, Be-|ware! _ Be-|ware! _|Trust it not, it is|
 G2 (AB) A4 |"^cresc." d2 B2 A2 G G |!>(! G6 G2!>)! | F6 |] %14
w: ru- in _ thee,|Trust it not, it will|ru- in|thee!|
w: ru- in _ thee,|Trust it not, it will|ru- in|thee!|
w: ru- in _ thee,|Trust it not, it will|ru- in|thee!|
w: fool- ing _ thee,|Trust it not, it will|ru- in|thee!|
V:3
!mf! F,2 | F,2 F,- F,!<(! F,2 (A, A,)!<)! | !>!B,3 A, B,2 z2 | B,4 F,2 z2 | E,4 F,2 z F, | %5
w: 1.I|know the _ wine- cup's _|fair to see,|Take care!|Take care! It|
w: 2.It|glit- ters _ like a _|gold- en crown,|Take care!|Take care! To|
w: 3.There's|pain and _ woe in the|wine- cup's hue,|Take care!|Take care! And|
w: 4.It|shines like a jew- el _|bright and fair,|Take care!|Take care! It|
 F,2 F,2!<(! F,2 ((F, F,))!<)! | !>!G,3 G, G,2 z G, | (G,4 F,2) z F, | (F,4 E,2) z2 | %9
w: can both false and _|frien- ly be, Be-|ware! _ Be-|ware! _|
w: dark- ness it will _|drag thee down, Be-|ware! _ Be-|ware! _|
w: it will prove no _|friend to thee, Be-|ware! _ Be-|ware! _|
w: is a fool's cap for|thee to wear, Be-|ware! _ Be-|ware! _|
!p! F,2 E,2 D,2 G, F, | E,2 G,2 F,4 |"^cresc." B,2 F,2 F,2 F, F, |!>(! (F,4 E,2) E,2!>)! | C,6 |] %14
w: Trust it not, it will|ru- in thee,|Trust it not, it will|ru- * in|thee!|
w: Trust it not, it will|ru- in thee,|Trust it not, it will|ru- * in|thee!|
w: Trust it not, it will|ru- in thee,|Trust it not, it will|ru- * in|thee!|
w: Trust it not, it is|fool- ing thee,|Trust it not, it will|ru- * in|thee!|
V:4
!mf! F,2 | F,2 C,- C,!<(! F,2 (C, C,)!<)! | !>!E,3 F, G,2 z2 | F,4 B,,2 z2 | C,4 F,,2 z F, | %5
w: 1.I|know the _ wine- cup's _|fair to see,|Take care!|Take care! It|
w: 2.It|glit- ters _ like a _|gold- en crown,|Take care!|Take care! To|
w: 3.There's|pain and _ woe in the|wine- cup's hue,|Take care!|Take care! And|
w: 4.It|shines like a jew- el _|bright and fair,|Take care!|Take care! It|
 F,2 C,2!<(! F,2 ((C, C,))!<)! | !>!G,3 F, E,2 z A,, | (A,,4 B,,2) z G,, | (G,,4 C,2) z2 | %9
w: can both false and _|frien- ly be, Be-|ware! _ Be-|ware! _|
w: dark- ness it will _|drag thee down, Be-|ware! _ Be-|ware! _|
w: it will prove no _|friend to thee, Be-|ware! _ Be-|ware! _|
w: is a fool's cap for|thee to wear, Be-|ware! _ Be-|ware! _|
!p! A,,2 A,,2 B,,2 B,, B,, | C,2 C,2 D,4 |"^cresc." B,,2 B,,2 C,2 D, D, |!>(! C,4 C,4!>)! | F,,6 |] %14
w: Trust it not, it will|ru- in thee,|Trust it not, it will|ru- in|thee!|
w: Trust it not, it will|ru- in thee,|Trust it not, it will|ru- in|thee!|
w: Trust it not, it will|ru- in thee,|Trust it not, it will|ru- in|thee!|
w: Trust it not, it is|fool- ing thee,|Trust it not, it will|ru- in|thee!|

